X:1
T:Lord Alexander Russel's Jig
T:Lord Alexander Russel's Jig
T:William Marshall
C:William Marshall
L:1/8
M:6/8
K:C
V:1 treble 
V:1
 G |"C" [G,Ec]3 c2 e |"G" B/c/dB"C" c2 G |"F" cBA"C" GFE |"Dm" D3"G7" D2 B |"C" [Ec]3"Am" c2 e | %6
"D7" dec"G" B2 G |"F" cBA"G7" GEG |"C"{B,} C3 C2 :| e/f/ |"C" e/f/gc gfe |"Dm" f/g/af"G7" agf | %12
"C" gec"Am" cde |"Dm"{^c} d3"G7" d2 e/f/ |"C" e/f/gc gfe |"Dm" f/g/af"F" agf |"C" edc"G7" GAB | %17
"C" c3 c2 || e/f/ |"C" gec"Dm" afd |"C" gec"F" afd |"C" gec"Am" cde |"D7"{^c} d3"G7" d2 e/f/ | %23
"C" gfe"G7" fed |"Am" edc"G7" dcB |"F" cBA"G7" GEG |"C"{B,} C3 C2 |] %27

